X:1
T: The Marchfield Brae Scots Measure
C:Ron Gonnella
R:Reel
Q: 232
K:G
M:4/4
L:1/8
|:G,A, B,C DE FG|AB cd ef ga|b2 ag ga bg|a2 A2 A4|
G,A, B,C DE FG|AB cd ef ga|b2 ag fg af|g2 G2 G4:|
ba gf ed cB|ag fe dc BA|gf ed cB AG|F2 A2 A4|
ba gf ed cB|ag fe dc BA|B2 AG FG AF|G2 G,2 G,4|
ba gf ed cB|ag fe dc BA|gf ed cB AG|F2 A2 A4|
G,A, B,C DE FG|AB cd ef ga|b2 ag fg af|g2 G2 G4||
